X:1
T:The Stranger
T:The Stranger
T:Charles Hutchinson Gabriel
T:Charles Hutchinson Gabriel, 1915
T:Public Domain Courtesy of the Cyber Hymnal™
T:Public Domain Courtesy of the Cyber Hymnal™
C:Charles Hutchinson Gabriel
Z:Public Domain
Z:Courtesy of the Cyber Hymnal™
%%score ( 1 2 ) 3
L:1/8
Q:1/4=110
M:3/4
K:Bb
V:1 treble 
V:2 treble 
V:3 bass 
V:1
 DE | [DF]2 [DF]2 [DF]2 | [DG]2 [DF]2 [DF]2 | [Fd]2 [DB]2 D2 | [DG]2 [DF]2 B2 | [EA]2 F2 [Fef]2 | %6
w: 1.~’Tis the|mes- sage of|Christ- mas we|sing to you|glad- ly, A|mes- sage of|
w: 2.~Low- ly|shep- herds were|first to be|told of His|ad- vent! They|heard the glad|
 ([eg]2 [ef]2) [Ec]2 | [DB]2 [DF]2 [Fdf]2 | ([dg]2 [df]2) DE | [DF]2 [DF]2 [DF]2 | %10
w: love * from|Heav- en a-|bove; * Un- to|man- kind this|
w: song * and|saw the bright|throng * Of im-|mor- tals that|
 [DG]2 [DF]2 [DF]2 | [Fd]2 [DB]2 D2 | [DG]2 [DF]2 [DFG]2 | [DFA]2 [DFA]2 [DFA]2 | [DFA]4 (FG) | %15
w: day in the|ci- ty of|Da- vid A|Sav- ior is|born! All *|
w: came with the|first Christ- mas|mes- sage— A|Sav- ior is|born! All *|
 AB AG F=E | D4 D2 | E2 F2 G2 | [EA]2 [Fd]3 [Ec] | c2 B2 D2 | [DF]4 [GB][Ac] | %21
w: hail the hap- py, hap- py|morn! No|room was pre-|to re- ceive|Him, the King!|But a rude|
w: hail the hap- py, hap- py|morn! Then|out of the|came the Ma-|gi of old!|And they found|
 [GB]2 [FA]2 [FA][GB] | [FA]2 [EG]2 [EG][FA] | [EG]2 [DF]2 [DF]2 | D2 F2 D2 | E2 F2 G2 | %26
w: and low- ly man-|ger could be found|for the Strang-|er Who left|His bright throne|
w: Him in a mang-|er, found the heav-|en- ly Strang-|er, And laid|at His feet|
 [EA]2 [Fd]3 [Ec] | [Ec]2 [DB]2 D2 | A4 GG | [DF]2 [DF]2 FG | [EA]2 [EA]2 Bc | [Ed]2 [Ec]2 [EF]2 | %32
w: sal- va- tion|to bring; With|the glo- ry|of the sto- ry|let the whole earth|now ring. *|
w: or, rich- es,|and gold! Of|His glo- ry,|of the sto- ry,|let the whole earth|be told. *|
 [DB]4 |] %33
w: |
w: |
V:2
 x2 | x6 | x6 | x6 | x6 | x6 | F4 x2 | x6 | F4 x2 | x6 | x6 | x6 | x6 | x6 | x6 | ^C4 x2 | x6 | %17
 E6- | x6 | D6 | x6 | x6 | x6 | x6 | x6 | E6- | x6 | x6 | x6 | x6 | x6 | x6 | x4 |] %33
V:3
 z2 | B,,2 [D,F,B,]2 [D,F,B,]2 | B,,2 [D,F,B,]2 [D,F,B,]2 | B,,2 [D,F,B,]2 [D,F,B,]2 | %4
 B,,2 [D,F,B,]2 [D,F,B,]2 | C,2 [E,A,]2 [E,F,A,]2 | F,,2 [E,F,A,]2 [E,F,A,]2 | %7
 B,,2 [D,F,B,]2 [D,F,B,]2 | B,,2 [D,F,B,]2 [D,F,B,]2 | B,,2 [D,F,B,]2 [D,F,B,]2 | %10
 B,,2 [D,F,B,]2 [D,F,B,]2 | B,,2 [D,F,B,]2 [D,F,B,]2 | B,,2 [D,F,B,]2 [D,F,B,]2 | %13
 A,,2 [D,F,A,]2 [D,F,A,]2 | (A,,2 [D,F,A,]2) [D,F,A,]2 | A,,2 [=E,G,A,]2 [E,G,A,]2 | %16
 ([D,F,A,]2 [D,F,A,]2) z2 | C,2 [E,F,A,]2 [E,F,A,]2 | F,,2 [E,F,A,]2 [E,F,A,]2 | %19
 B,,2 [D,F,B,]2 [D,F,B,]2 | (B,,2 [D,F,B,]2) z2 | C,2 [E,F,A,]2 [E,F,A,]2 | %22
 F,,2 [E,F,A,]2 [E,F,A,]2 | B,,2 [D,F,B,]2 [D,F,B,]2 | B,,2 [D,F,B,]2 [D,F,B,]2 | %25
 C,2 [E,F,A,]2 [E,F,A,]2 | F,,2 [E,F,A,]2 [E,F,A,]2 | B,,2 [D,F,B,]2 [D,F,B,]2 | %28
 ([=E,G,B,^C]2 [E,G,B,C]2) z2 | [F,B,]2 [F,B,]2 z2 | [F,A,C]2 [F,A,C]2 z2 | %31
 F,,2 [E,F,A,]2 [E,F,A,]2 | (B,,2 B,2) |] %33

